X:18
T:Clancy's Jig
S:The Pipering of Willie Clancy. Vol. 1
D:Claddagh CC32CD, 1980
N:1st time through, transcribed by Alan Ng
Z: id:ng-other-18 Transcribed by Alan Ng alan@alan-ng.nospam (net) 7 Sept. 2001. Revised 5 Feb. 2006.
R:Single jig
K:GMaj
M:6/8
g2e|:d2B G2G|AGE G2|D2G BAG|A3 B2d|\
d2B G2A|AGE G2E|D2G BAG|[1A3 G2B:|2A3 G2{A}G||*
c2d e2f|gg2 e2d|B2d g2e|d2B G2B|c2d e2f|g2f g2e|d2B G2A|A3 A2G||*
c2d e2f|gg2 e2d|Bcd g2e|d2B G2B|c2d e2f|g2z g2z|g2z G2B|A/2B/2AG g2e||*
